X: 42710
T: Whistling Past The Graveyard
R: slip jig
M: 9/8
K: Dmajor
def e2 d dBA|BAF EDB, B,2 C|D2 E FAB ABd|fed dcd e2 f|
a2 B' afe def|g3 bge edB|cBA ecA bge|Ace gfe d3:|
A2 d BAF ABd|faf fed B3|GBe GBe g3|fed fed A3|
A2 d BAF ABd|faf fed B3|bge c3 bge|Ace gfe d3:|
AFD DDD AFD|DDD dfd BAF|E3 EDB, EDB,|A,3 DFB Adf|
afd ddd afd|ddd baf [c3e]|cBA ecA bge|Ace gfe d3:|

